X:1
T:Let Simon's Beard Alone
M:6/8
L:1/8
K:Eb
 G| G2 C E2 F| G2 =A B3/2 A/2- G| c2 C E2 F| G3- G2 C| E3/2 F/2- G G2 =A|\
 B2 c d3/2 c/2- B| e c2 c =B2| c3- c2 c| _BBc BBF| GEE DBE| c3/2- B/2 A G2 G|\
 E3- E2||
